!!!OTL: SCHOENSTER SCHATZ MEIN ENGEL
!!!ARE: Europa, Mitteleuropa, Deutschland
!!!SCT: F0928
!!!YEM: Copyright 1995, estate of Helmut Schaffrath.
**kern
*ICvox
*Ivox
*M3/8
*k[b-]
*F:
{8a
8b-
=1
4cc
8ff
=2
8cc
8a
8r}
=3
{8cc
8a
8cc
=4
4b-
8cc
=5
4a
8r}
=6
{8cc
8a
8f
=7
4g
16cc
16b-
=8
8a
8f
8r}
=9
{8cc
8a
8f
=10
8.g
16f
16g
16a
=11
4f
8r
=12
8r}
==
!!!AGN: Liebes - Lied, Klage
!!!ONB: ESAC (Essen Associative Code) Database: FINK
!!!AMT: simple triple
!!!AIN: vox
!!!EED: Helmut Schaffrath
!!!EEV: 1.0
*-
